X:2078
T:The streams (of lovely Nancy) 
C:Traditional
O:Isle of Man
Z:Clague collection
B:Kiaull Vannin #78 
Q:120 
M:3/4 
L:1/8 
K:D 
(A!3!Bc)|d2 e2 A>G|G2 F2 F>G|A2 d2 e2|d4 d>e|f2 !fermata!a2 f>d|e>f !fermata!g2 a>f|d2 c2 B2|A4 d>e| 
f2 a2 f>d|e>f !fermata!g2 a>f|d2 A2 f>g|a2 !fermata!f2 ge|d2 e2 A>G|F2 G2 F>G|A2 d2 e2|d4|| 

